public/map/marker-2.svg

<svg width="58" height="58" viewBox="0 0 58 58" fill="none" xmlns="http://www.w3.org/2000/svg">
<rect x="0.71582" y="29" width="40" height="40" rx="12.6316" transform="rotate(-45 0.71582 29)" fill="#5B5B5B"/>
<path fill-rule="evenodd" clip-rule="evenodd" d="M33 25C33 22.7909 31.2091 21 29 21C26.7909 21 25 22.7909 25 25C25 27.2091 26.7909 29 29 29C31.2091 29 33 27.2091 33 25ZM27 25C27 23.8954 27.8954 23 29 23C30.1046 23 31 23.8954 31 25C31 26.1046 30.1046 27 29 27C27.8954 27 27 26.1046 27 25ZM29 30C31.67 30 37 31.33 37 34V37H21V34C21 31.33 26.33 30 29 30ZM22.9 34C22.9 33.36 26.03 31.9 29 31.9C31.97 31.9 35.1 33.36 35.1 34V35.1H22.9V34Z" fill="white"/>
</svg>

<svg id="Capa_1" data-name="Capa 1" xmlns="http://www.w3.org/2000/svg" viewBox="0 0 46.1 46.1"><defs><style>.cls-1{fill:#5b5b5b;}.cls-2{fill:#fff;}</style></defs><title>marker-2</title><rect class="cls-1" x="9" y="9" width="40" height="40" rx="12.63" ry="12.63" transform="translate(-17.96 23.05) rotate(-45)"/><path class="cls-2" d="M33,25a4,4,0,1,0-4,4A4,4,0,0,0,33,25Zm-6,0a2,2,0,1,1,2,2A2,2,0,0,1,27,25Zm2,5c2.67,0,8,1.33,8,4v3H21V34C21,31.33,26.33,30,29,30Zm-6.1,4c0-.64,3.13-2.1,6.1-2.1s6.1,1.46,6.1,2.1v1.1H22.9V34Z" transform="translate(-5.95 -5.95)"/></svg>
